icon-themes/sifr_svg/cmd/sc_print.svg

<svg viewBox="0 0 16 16" xmlns="http://www.w3.org/2000/svg"><path d="m4 2v2h8v-2zm-2 3c-.554 0-1 .446-1 1v4c0 .554.446 1 1 1h1v-2h10v2h1c.554 0 1-.446 1-1v-4c0-.554-.446-1-1-1zm2 5v5h8v-5z" fill="#555753"/></svg>

<svg xmlns="http://www.w3.org/2000/svg" viewBox="0 0 16 16">
  <path
     style="fill:#555753"
     d="M 4 2 L 4 4 L 12 4 L 12 2 L 4 2 z M 2 5 C 1.446 5 1 5.446 1 6 L 1 10 C 1 10.554 1.446 11 2 11 L 3 11 L 3 9 L 13 9 L 13 11 L 14 11 C 14.554 11 15 10.554 15 10 L 15 6 C 15 5.446 14.554 5 14 5 L 2 5 z M 4 10 L 4 15 L 12 15 L 12 10 L 4 10 z "
     />
</svg>
